X: 27264
T: Miss Stewart's
R: jig
M: 6/8
K: Gmixolydian
dc|:~B2G (3BcdB|cAF ABc|~B2G (3BcdB|GBd gdc|
~B2G (3BcdB|cAF ABc|dBG cAF|GDB, G2:|
|:g2a gdB|fc^A =AGF|GBd gdc|~B2G (3BcdB|
caf Bge|Afc AFA|GBd gdc|1 B2G (3BcdB:|2 B2D G3||

